svg/emoji_u1f514.svg

<?xml version="1.0" encoding="UTF-8"?>
<svg width="128" height="128" enable-background="new 0 0 128 128" xmlns="http://www.w3.org/2000/svg"><radialGradient id="d" cx="64.167" cy="122.33" r="20.667" gradientUnits="userSpaceOnUse"><stop stop-color="#FFA000" offset="0"/><stop stop-color="#FF8F00" offset=".7434"/><stop stop-color="#FF8F00" offset="1"/></radialGradient><circle cx="64" cy="112" r="12" fill="url(#d)"/><radialGradient id="c" cx="63.75" cy="-1.5" r="17.653" gradientUnits="userSpaceOnUse"><stop stop-color="#FFD740" offset="0"/><stop stop-color="#FFD43C" offset=".203"/><stop stop-color="#FFCB2F" offset=".4162"/><stop stop-color="#FFBD1A" offset=".6332"/><stop stop-color="#FFAB00" offset=".8336"/><stop stop-color="#FFAB00" offset="1"/></radialGradient><circle cx="64" cy="12" r="8" fill="url(#c)"/><g opacity=".2"><path d="m64 103c4.96 0 9 4.04 9 9s-4.04 9-9 9-9-4.04-9-9 4.04-9 9-9m0-3c-6.63 0-12 5.37-12 12s5.37 12 12 12 12-5.37 12-12-5.37-12-12-12z" fill="#424242"/></g><g opacity=".2"><path d="m64 7c2.76 0 5 2.24 5 5s-2.24 5-5 5-5-2.24-5-5 2.24-5 5-5m0-3c-4.42 0-8 3.58-8 8s3.58 8 8 8 8-3.58 8-8-3.58-8-8-8z" fill="#424242"/></g><radialGradient id="b" cx="63.833" cy="11.167" r="103.48" gradientUnits="userSpaceOnUse"><stop stop-color="#FFD740" offset="0"/><stop stop-color="#FFD43C" offset=".203"/><stop stop-color="#FFCB2F" offset=".4162"/><stop stop-color="#FFBD1A" offset=".6332"/><stop stop-color="#FFAB00" offset=".8336"/><stop stop-color="#FFAB00" offset="1"/></radialGradient><path d="m104 44c0-35.62-40-32-40-32s-40-3.62-40 32-12 52-12 52h104s-12-16.38-12-52z" fill="url(#b)"/><path d="m118 108h-108c-3.3 0-6-2.7-6-6s2.7-6 6-6h108c3.3 0 6 2.7 6 6s-2.7 6-6 6z" fill="#FFD740"/><g opacity=".2"><path d="m67.03 14.9c10.22 0 33.97 2.83 33.97 29.1 0 36.18 12.07 53.07 12.58 53.77l0.9 1.23h3.52c1.65 0 3 1.35 3 3s-1.35 3-3 3h-108c-1.65 0-3-1.35-3-3s1.35-3 3-3h3.52l0.9-1.23c0.51-0.7 12.58-17.59 12.58-53.77 0-11.5 4.51-19.75 13.4-24.51 7.46-4 16.09-4.59 20.56-4.59 1.71 0 2.76 0.09 2.76 0.09l0.28 0.02 0.27-0.02c0.01 0 1.05-0.09 2.76-0.09m0-3c-1.89 0-3.03 0.1-3.03 0.1s-1.14-0.1-3.03-0.1c-9.33 0-36.97 2.49-36.97 32.1 0 35.62-12 52-12 52h-2c-3.3 0-6 2.7-6 6s2.7 6 6 6h108c3.3 0 6-2.7 6-6s-2.7-6-6-6h-2s-12-16.38-12-52c0-29.6-27.64-32.1-36.97-32.1z" fill="#424242"/></g><radialGradient id="a" cx="64.5" cy="101.83" r="77.668" gradientUnits="userSpaceOnUse"><stop stop-color="#FFD740" offset="0"/><stop stop-color="#FFD43C" offset=".2435"/><stop stop-color="#FFCB2F" offset=".4992"/><stop stop-color="#FFBD1A" offset=".7596"/><stop stop-color="#FFAB00" offset="1"/></radialGradient><path d="m118 108h-108c-3.3 0-6-2.7-6-6s2.7-6 6-6h108c3.3 0 6 2.7 6 6s-2.7 6-6 6z" fill="url(#a)"/><g opacity=".2"><path d="m118 99c1.65 0 3 1.35 3 3s-1.35 3-3 3h-108c-1.65 0-3-1.35-3-3s1.35-3 3-3h108m0-3h-108c-3.3 0-6 2.7-6 6s2.7 6 6 6h108c3.3 0 6-2.7 6-6s-2.7-6-6-6z" fill="#424242"/></g></svg>

<svg width="128" height="128" style="enable-background:new 0 0 128 128;" xmlns="http://www.w3.org/2000/svg" xmlns:xlink="http://www.w3.org/1999/xlink">
  <radialGradient id="SVGID_1_" cx="64.1667" cy="122.3333" gradientUnits="userSpaceOnUse" r="20.6667">
    <stop offset="0" style="stop-color:#FFA000"/>
    <stop offset="0.7434" style="stop-color:#FF8F00"/>
    <stop offset="1" style="stop-color:#FF8F00"/>
  </radialGradient>
  <circle cx="64" cy="112" r="12" style="fill:url(#SVGID_1_);"/>
  <radialGradient id="SVGID_2_" cx="63.75" cy="-1.5" gradientUnits="userSpaceOnUse" r="17.6529">
    <stop offset="0" style="stop-color:#FFD740"/>
    <stop offset="0.203" style="stop-color:#FFD43C"/>
    <stop offset="0.4162" style="stop-color:#FFCB2F"/>
    <stop offset="0.6332" style="stop-color:#FFBD1A"/>
    <stop offset="0.8336" style="stop-color:#FFAB00"/>
    <stop offset="1" style="stop-color:#FFAB00"/>
  </radialGradient>
  <circle cx="64" cy="12" r="8" style="fill:url(#SVGID_2_);"/>
  <g style="opacity:0.2;">
    <path d="M64,103c4.96,0,9,4.04,9,9s-4.04,9-9,9s-9-4.04-9-9S59.04,103,64,103 M64,100c-6.63,0-12,5.37-12,12 s5.37,12,12,12s12-5.37,12-12S70.63,100,64,100L64,100z" style="fill:#424242;"/>
  </g>
  <g style="opacity:0.2;">
    <path d="M64,7c2.76,0,5,2.24,5,5s-2.24,5-5,5s-5-2.24-5-5S61.24,7,64,7 M64,4c-4.42,0-8,3.58-8,8s3.58,8,8,8 s8-3.58,8-8S68.42,4,64,4L64,4z" style="fill:#424242;"/>
  </g>
  <radialGradient id="SVGID_3_" cx="63.8333" cy="11.1667" gradientUnits="userSpaceOnUse" r="103.484">
    <stop offset="0" style="stop-color:#FFD740"/>
    <stop offset="0.203" style="stop-color:#FFD43C"/>
    <stop offset="0.4162" style="stop-color:#FFCB2F"/>
    <stop offset="0.6332" style="stop-color:#FFBD1A"/>
    <stop offset="0.8336" style="stop-color:#FFAB00"/>
    <stop offset="1" style="stop-color:#FFAB00"/>
  </radialGradient>
  <path d="M104,44c0-35.62-40-32-40-32S24,8.38,24,44S12,96,12,96h52h52C116,96,104,79.62,104,44z" style="fill:url(#SVGID_3_);"/>
  <path d="M118,108H10c-3.3,0-6-2.7-6-6v0c0-3.3,2.7-6,6-6h108c3.3,0,6,2.7,6,6v0C124,105.3,121.3,108,118,108z " style="fill:#FFD740;"/>
  <g style="opacity:0.2;">
    <path d="M67.03,14.9C77.25,14.9,101,17.73,101,44c0,36.18,12.07,53.07,12.58,53.77l0.9,1.23H116h2 c1.65,0,3,1.35,3,3c0,1.65-1.35,3-3,3H10c-1.65,0-3-1.35-3-3c0-1.65,1.35-3,3-3h2h1.52l0.9-1.23C14.93,97.07,27,80.18,27,44 c0-11.5,4.51-19.75,13.4-24.51c7.46-4,16.09-4.59,20.56-4.59c1.71,0,2.76,0.09,2.76,0.09L64,15.01l0.27-0.02 C64.28,14.99,65.32,14.9,67.03,14.9 M67.03,11.9C65.14,11.9,64,12,64,12s-1.14-0.1-3.03-0.1C51.64,11.9,24,14.39,24,44 c0,35.62-12,52-12,52h-2c-3.3,0-6,2.7-6,6c0,3.3,2.7,6,6,6h108c3.3,0,6-2.7,6-6c0-3.3-2.7-6-6-6h-2c0,0-12-16.38-12-52 C104,14.4,76.36,11.9,67.03,11.9L67.03,11.9z" style="fill:#424242;"/>
  </g>
  <radialGradient id="SVGID_4_" cx="64.5" cy="101.8333" gradientUnits="userSpaceOnUse" r="77.6683">
    <stop offset="0" style="stop-color:#FFD740"/>
    <stop offset="0.2435" style="stop-color:#FFD43C"/>
    <stop offset="0.4992" style="stop-color:#FFCB2F"/>
    <stop offset="0.7596" style="stop-color:#FFBD1A"/>
    <stop offset="1" style="stop-color:#FFAB00"/>
  </radialGradient>
  <path d="M118,108H10c-3.3,0-6-2.7-6-6v0c0-3.3,2.7-6,6-6h108c3.3,0,6,2.7,6,6v0 C124,105.3,121.3,108,118,108z" style="fill:url(#SVGID_4_);"/>
  <g style="opacity:0.2;">
    <path d="M118,99c1.65,0,3,1.35,3,3s-1.35,3-3,3H10c-1.65,0-3-1.35-3-3s1.35-3,3-3H118 M118,96H10 c-3.3,0-6,2.7-6,6s2.7,6,6,6h108c3.3,0,6-2.7,6-6S121.3,96,118,96L118,96z" style="fill:#424242;"/>
  </g>
</svg>
